X:1
T:Title
%%score ( 1 2 ) ( 3 4 )
L:1/8
M:4/4
K:A
V:1 treble nm="Choir Aahs, Staff"
V:2 treble 
V:3 bass nm="Choir Aahs, Staff-1"
V:4 bass 
V:1
 [CA]2 [Ec][DB] [CA]2 E2 | D-[DG][EA][FB] [Ec]2 [EB]2 | [EA]2 [Ec]2 D-[DG][EA][FB] | %3
w: By~John~Thomas * * * *|||
 [Ec]2 [DB]2 [CA]4 | [CA]2 [Ec][DB] [CA]2 E2 | E-[EG]AB [Ec]2 [EB]2 | [CA]2 [^Ec]2 F[EG][FA][GB] | %7
w: ||||
 [FA]2 [^EG]2 [CF]4 | [EG]2 [GB][FA] [EG]>[^DF] E2 | [Ec]2 ed [Ec]>B [EA]A | %10
w: |||
 [Ac]2 [=Ge]2 [Fd]2 FB | [EA]2 [EG]2 [EA]4 |] %12
w: ||
V:2
 x8 | .F2 z2 z4 | z4 .F2 z2 | x8 | x8 | .F2 ^D2 z4 | x8 | x8 | x8 | z2 E2 z4 | x8 | x8 |] %12
V:3
 [A,,E,]2 [A,,E,]2 [A,,E,]2 [C,A,]2 | A,2 A,2 z4 | z4 .A,2 z2 | [E,A,]2 [E,G,]2 [A,,A,]4 | %4
 [A,,A,]2 [A,,G,]2 [A,,A,]2 [A,C][G,B,] | .A,2 z2 z4 | [F,A,]2 [C,G,]2 [A,C][G,B,][F,C][B,,D] | %7
 [C,C]2 [C,B,]2 [F,A,]4 | [E,B,]2 [E,B,]2 [E,B,]>A, [E,G,]2 | A,2 CB, A,>B, C-[G,C] | %10
 [F,A,]2 [C,A,]2 [D,A,]2 [D,A,][B,,D] | [E,C]2 [E,B,]2 [A,,C]4 |] %12
V:4
 x8 | D,B,,C,D, [E,A,]2 [E,G,]2 | [C,A,]2 [A,,A,]2 D,-[D,B,][C,C][B,,D] | x8 | x8 | %5
 F,-[F,B,] [F,A,]2 [E,A,]2 [E,G,]2 | x8 | x8 | x8 | z2 A,2 z2 .A,2 | x8 | x8 |] %12

